X: 530
T: Dağbaşında Ağlarım
C: İsmail Hakkı Bey
O: Turkey
F: http://compmusic.upf.edu/node/140
N: hicazkar--kocekce--devrituran--dag_basinda--muallim_ismail_hakki_bey
N: makam= hicazkar
N: form= kocekce
N: usul= devrituran = 7/16
M: 7/16
L: 1/16
K: C _1/4B _7/8e _7/8A ^f
Q: 1/4=204
%%MIDI tuningsystem comma53
g4 g4 g4 g2g2 f2g2 =a2=f4_2/4e2  | \
w:  Dağ ba şın da  ağ *  la *  rım    | 
=f4 f4 _2/4e4 c2d4d4c4z2  | g4 g4 g4 g2g2 f2g2 =a2=f4_2/4e2  | 
w:  Su  ba şın da  çağ la rım    |  Dağ ba şın da  ağ *  la *  rım    | 
=f4 f4 _2/4e4 c2d4d4c4z2  | =f4 f4 _2/4e4 c2d4e4f4z2  | \
w:  Su  ba şın da  çağ la rım    |  Ben  dü şe li  aş kı na    | 
_2/4e4 e4 e4 c2d4d4c4z2  | 
w:  Ci ğe ri mi  dağ la rım    | 
=f4 f4 _2/4e4 c2d4e4f4z2  | _2/4e4 e4 e4 c2d4d4c4z2  | \
w:  Ben  dü şe li  aş kı na    |  Ci ğe ri mi  dağ la rım    | 
g4 g2_1/4e2 =f4 d2_7/8e4e2 c2d4c2  | 
w:  SAZ  | 
c2d2 _2/4e2=f2 e2d2 c2g4g4g4z2  | \
w:   | 
g4 g2_2/4e2 =f4 d2_3/4e4e2 c2d4c2  | 
w:   | 
_3/4e2d2 e2g2 =f2e2 d2c4c4c4z2  | \
w:   | 
g4 g4 g4 =a2_b4b2 a2g4z2  | _b4 b2=a2 g2=f2 _2/4e2g4g2 f2e2 d2c2  | 
w:   |   | 
g4 g4 g4 =a2_b4b2 a2g4z2  | _b4 b2=a2 g2=f2 _1/4e2g4g4g4z2  | \
w:   |   | 
g4 g2_1/4e2 =f4 d2_7/8e4e2 c2d4c2  | 
w:  SAZ  | 
c2d2 _2/4e2=f2 e2d2 c2g4g4g4z2  | \
w:   | 
g4 g2_2/4e2 =f4 d2_3/4e4e2 c2d4c2  | 
w:   | 
_3/4e2d2 e2g2 =f2e2 d2c4c4c4z2  | \
w:   | 
g4 g4 g4 =a2_b4b2 a2g4z2  | _b4 b2=a2 g2=f2 _2/4e2g4g2 f2e2 d2c2  | 
w:   |   | 
g4 g4 g4 =a2_b4b2 a2g4z2  | _b4 b2=a2 g2=f2 _1/4e2g4g4g4z2  | \
w:   |   | 
g4 g4 g2=f2 _2/4e2f4f4f2 e2d2  | 
w:   | 
_2/4e4 e4 e2d2 c2g4g4g4z2  | g4 g4 g2=f2 _2/4e2f4f4f2 e2d2  | \
w:   |   | 
_2/4e4 e4 e2d2 c2d4d4c4z2  | 
w:   | 
g4 g4 g2=f2 _2/4e2f4f4f2 e2d2  | _2/4e4 e4 e2d2 c2g4g4g4z2  | \
w:   |   | 
g4 g4 g2=f2 _2/4e2f4f4f2 e2d2  | 
w:   | 
_2/4e4 e4 e2d2 c2d4d4c4z2  | z8  | f4g4  | \
w:   |  |   | 
f4g4  | e2edc2B2  | c4G4  | 
w:   |   |   | 
f4g4  | f4g4  | e2edc2B2  | c4z4  | f4g4  | f4g4  | \
w:   |   |   |   |   |   | 
e2edc2B2  | c4G4  | 
w:   |   | 
f4g4  | f4g4  | e2edc2B2  | c4z4  | f2f2f2f2  | \
w:   |   |   |   |   | 
e2e2e2e2  | d4c4  | 
w:   |   | 
g4z4  | f2e2d2c2  | B2c2d2z2  | B8  | a8  | G16  | |


